packages/ffe-icons/icons/open/300/sm/auto_transmission.svg

<svg xmlns="http://www.w3.org/2000/svg" height="20" viewBox="0 -960 960 960" width="20"><path d="M161.046-164.001q-40.815 0-69.43-28.562-28.615-28.561-28.615-69.362 0-33.537 20.192-59.806 20.193-26.269 51.808-34.577v-247.384Q103.386-612 83.193-638.189q-20.192-26.19-20.192-59.777 0-40.866 28.57-69.449 28.57-28.584 69.384-28.584t69.429 28.562Q259-738.876 259-698.075q0 33.537-20.193 59.806Q218.615-612 187-603.692v97.693h243.001v-97.693q-31.616-8.308-51.808-34.497-20.192-26.19-20.192-59.777 0-40.866 28.57-69.449 28.57-28.584 69.384-28.584t69.429 28.562q28.615 28.561 28.615 69.362 0 33.537-20.192 59.806t-51.808 34.577v97.693h197.385q19.147 0 32.574-13.427 13.427-13.428 13.427-32.574v-51.692Q693.77-612 673.577-638.189q-20.192-26.19-20.192-59.777 0-40.866 28.57-69.449 28.57-28.584 69.384-28.584t69.429 28.562q28.616 28.561 28.616 69.362 0 33.537-20.193 59.806-20.192 26.269-51.807 34.577V-552q0 40.833-28.584 69.416-28.583 28.583-69.416 28.583H481.999v97.693q31.616 8.308 51.808 34.497 20.192 26.19 20.192 59.777 0 40.866-28.57 69.449-28.57 28.584-69.384 28.584t-69.429-28.562q-28.615-28.561-28.615-69.362 0-33.537 20.192-59.806t51.808-34.577v-97.693H187v97.693q31.615 8.308 51.807 34.497Q259-295.621 259-262.034q0 40.866-28.57 69.449-28.57 28.584-69.384 28.584ZM160.79-216q19.057 0 32.634-13.367 13.577-13.366 13.577-32.423 0-19.057-13.367-32.634-13.366-13.577-32.423-13.577-19.057 0-32.634 13.366Q115-281.268 115-262.211t13.366 32.634Q141.733-216 160.79-216Zm0-435.999q19.057 0 32.634-13.366 13.577-13.367 13.577-32.424t-13.367-32.634Q180.268-744 161.211-744q-19.057 0-32.634 13.367Q115-717.267 115-698.21q0 19.057 13.366 32.634 13.367 13.577 32.424 13.577ZM455.789-216q19.057 0 32.635-13.367 13.577-13.366 13.577-32.423 0-19.057-13.367-32.634-13.367-13.577-32.423-13.577-19.057 0-32.635 13.366-13.577 13.367-13.577 32.424t13.367 32.634Q436.733-216 455.789-216Zm0-435.999q19.057 0 32.635-13.366 13.577-13.367 13.577-32.424t-13.367-32.634Q475.267-744 456.211-744q-19.057 0-32.635 13.367-13.577 13.366-13.577 32.423 0 19.057 13.367 32.634 13.367 13.577 32.423 13.577Zm295.385 0q19.057 0 32.634-13.366 13.577-13.367 13.577-32.424t-13.367-32.634Q770.652-744 751.595-744q-19.057 0-32.634 13.367-13.577 13.366-13.577 32.423 0 19.057 13.366 32.634 13.367 13.577 32.424 13.577ZM161-262.001Zm0-435.998Zm295 435.998Zm0-435.998Zm295.384 0Z"/></svg>

<svg xmlns="http://www.w3.org/2000/svg" height="20" viewBox="0 -960 960 960" width="20"><path d="M161.05-164q-40.82 0-69.43-28.56Q63-221.12 63-261.93q0-33.53 20.19-59.8Q103.39-348 135-356.31v-247.38q-31.61-8.31-51.81-34.5Q63-664.38 63-697.97q0-40.86 28.57-69.45Q120.14-796 160.96-796q40.81 0 69.42 28.56Q259-738.88 259-698.07q0 33.53-20.19 59.8Q218.61-612 187-603.69V-506h243v-97.69q-31.61-8.31-51.81-34.5Q358-664.38 358-697.97q0-40.86 28.57-69.45Q415.14-796 455.95-796q40.82 0 69.43 28.56Q554-738.88 554-698.07q0 33.53-20.19 59.8Q513.61-612 482-603.69V-506h197.38q19.15 0 32.58-13.43 13.43-13.42 13.43-32.57v-51.69q-31.62-8.31-51.81-34.5-20.19-26.19-20.19-59.78 0-40.86 28.56-69.45Q710.52-796 751.34-796q40.81 0 69.43 28.56 28.61 28.56 28.61 69.37 0 33.53-20.19 59.8Q809-612 777.38-603.69V-552q0 40.83-28.58 69.42Q720.22-454 679.38-454H482v97.69q31.61 8.31 51.81 34.5Q554-295.62 554-262.03q0 40.86-28.57 69.45Q496.86-164 456.05-164q-40.82 0-69.43-28.56Q358-221.12 358-261.93q0-33.53 20.19-59.8Q398.39-348 430-356.31V-454H187v97.69q31.61 8.31 51.81 34.5Q259-295.62 259-262.03q0 40.86-28.57 69.45Q201.86-164 161.05-164Zm-.26-52q19.06 0 32.63-13.37Q207-242.73 207-261.79q0-19.06-13.37-32.63Q180.27-308 161.21-308q-19.06 0-32.63 13.37Q115-281.27 115-262.21q0 19.06 13.37 32.63Q141.73-216 160.79-216Zm0-436q19.06 0 32.63-13.37Q207-678.73 207-697.79q0-19.06-13.37-32.63Q180.27-744 161.21-744q-19.06 0-32.63 13.37Q115-717.27 115-698.21q0 19.06 13.37 32.63Q141.73-652 160.79-652Zm295 436q19.06 0 32.63-13.37Q502-242.73 502-261.79q0-19.06-13.37-32.63Q475.27-308 456.21-308q-19.06 0-32.63 13.37Q410-281.27 410-262.21q0 19.06 13.37 32.63Q436.73-216 455.79-216Zm0-436q19.06 0 32.63-13.37Q502-678.73 502-697.79q0-19.06-13.37-32.63Q475.27-744 456.21-744q-19.06 0-32.63 13.37Q410-717.27 410-698.21q0 19.06 13.37 32.63Q436.73-652 455.79-652Zm295.38 0q19.06 0 32.64-13.37 13.58-13.36 13.58-32.42 0-19.06-13.37-32.63Q770.65-744 751.59-744q-19.05 0-32.63 13.37-13.58 13.36-13.58 32.42 0 19.06 13.37 32.63Q732.12-652 751.17-652ZM161-262Zm0-436Zm295 436Zm0-436Zm295.38 0Z"/></svg>
